X:1
T:Title
T:B E A N O S
T:Bolded Lyrics are Original
T:AKA Holy Tony
T:Reggie COUZ on YouTube arr. Andrew Kahler 
C:Composer
L:1/8
Q:1/4=150
M:4/4
K:Eb
V:1 treble nm="Piano" snm="Pno."
V:1
 ED/D/ |:S"^3rd verse after the segno" C/C/ z D/D/ z E/E/ z D/D/D | CDEA G2 z G/G/!dacoda! |1 %3
w: I got- ta|count up, count up, count up, count up, these|racks I made to- day If you|
w: |ca- sh ca- sh ca- sh me- * ans|mo- ney to my bank If you|
w: |look up look up look up look up, my|man's got the big brain If you|
 AFFA GEEG | FDED D2 ED :|2 AF/F/ FA GE/E/ E/E/G | FDEC C2 EC || B,3 D E3 E | %8
w: ain't talk- in' 'bout mo- ney man get|out my da- mn face I got|ain't gon- na dance for cash li- l' ma- ma then|you will not get paid I gon'|blow ten grand, these|
w: |||||
w: |||||
 A>A AF G2 GE/E/!D.S.! ||O AF/F/ FA GE/E/ E/E/G | [Ff][Dd][Ee][Cc] [Cc]4- | !fermata![Cc]4 z2 |] %12
w: bands- 'll make her dance You bet- ter|ain't gon- na pay my man hund- red 'dol- la then|you as- kin' for pain||
w: ||||
w: ||||

